X:621
T: ACH BLUEMLEIN BLAU VERDORRE NICHT
N: E0572
O: Europa, Mitteleuropa, Deutschland, Posen
R: Liebes - Lied
M: 2/4
L: 1/16
K: G
D2 | G2G2d2d2 | _B3AG2
G2 | A2A2d2d2 | c2_B2A2
D2 | G2G2d2d2 | _B3AG2z2 |
A2B2c4 | _B2c2d2
D2 | G2G2c2_B2 | A4G2

@@@ Tune index: 4271
